icons/sun-fog.svg

<svg width="24" height="24" viewBox="0 0 24 24" fill="none" xmlns="http://www.w3.org/2000/svg">
<path fill-rule="evenodd" clip-rule="evenodd" d="M12 1C12.5523 1 13 1.44772 13 2V3C13 3.55228 12.5523 4 12 4C11.4477 4 11 3.55228 11 3V2C11 1.44772 11.4477 1 12 1ZM19.7782 4.22183C20.1687 4.61235 20.1687 5.24552 19.7782 5.63604L19.0711 6.34315C18.6805 6.73367 18.0474 6.73367 17.6569 6.34315C17.2663 5.95262 17.2663 5.31946 17.6569 4.92893L18.364 4.22183C18.7545 3.8313 19.3877 3.8313 19.7782 4.22183ZM4.2218 4.22185C4.61233 3.83132 5.24549 3.83132 5.63602 4.22185L6.34312 4.92896C6.73365 5.31948 6.73365 5.95264 6.34312 6.34317C5.9526 6.73369 5.31943 6.73369 4.92891 6.34317L4.2218 5.63606C3.83128 5.24554 3.83128 4.61237 4.2218 4.22185ZM12 8C9.79086 8 8 9.79086 8 12H9C9.55228 12 10 12.4477 10 13C10 13.5523 9.55228 14 9 14H5C4.44772 14 4 13.5523 4 13C4 12.4477 4.44772 12 5 12H6C6 8.68629 8.68629 6 12 6C15.3137 6 18 8.68629 18 12C18 15.3137 15.3137 18 12 18C11.4477 18 11 17.5523 11 17C11 16.4477 11.4477 16 12 16C14.2091 16 16 14.2091 16 12C16 9.79086 14.2091 8 12 8ZM20 12C20 11.4477 20.4477 11 21 11H22C22.5523 11 23 11.4477 23 12C23 12.5523 22.5523 13 22 13H21C20.4477 13 20 12.5523 20 12ZM2 17C2 16.4477 2.44772 16 3 16H9C9.55228 16 10 16.4477 10 17C10 17.5523 9.55228 18 9 18H3C2.44772 18 2 17.5523 2 17ZM17.6568 17.6569C18.0474 17.2663 18.6805 17.2663 19.071 17.6569L19.7782 18.364C20.1687 18.7545 20.1687 19.3877 19.7782 19.7782C19.3876 20.1687 18.7545 20.1687 18.3639 19.7782L17.6568 19.0711C17.2663 18.6806 17.2663 18.0474 17.6568 17.6569ZM6 21C6 20.4477 6.44772 20 7 20H14C14.5523 20 15 20.4477 15 21C15 21.5523 14.5523 22 14 22H7C6.44772 22 6 21.5523 6 21Z" fill="black"/>
</svg>

<svg
  width="24"
  height="24"
  viewBox="0 0 24 24"
  xmlns="http://www.w3.org/2000/svg"
>
  <path
    fill-rule="evenodd"
    clip-rule="evenodd"
    d="M12 1a1 1 0 0 1 1 1v1a1 1 0 1 1-2 0V2a1 1 0 0 1 1-1zm7.778 3.222a1 1 0 0 1 0 1.414l-.707.707a1 1 0 1 1-1.414-1.414l.707-.707a1 1 0 0 1 1.414 0zm-15.556 0a1 1 0 0 1 1.414 0l.707.707A1 1 0 1 1 4.93 6.343l-.707-.707a1 1 0 0 1 0-1.414zM12 8a4 4 0 0 0-4 4h1a1 1 0 1 1 0 2H5a1 1 0 1 1 0-2h1a6 6 0 1 1 6 6 1 1 0 1 1 0-2 4 4 0 0 0 0-8zm8 4a1 1 0 0 1 1-1h1a1 1 0 1 1 0 2h-1a1 1 0 0 1-1-1zM2 17a1 1 0 0 1 1-1h6a1 1 0 1 1 0 2H3a1 1 0 0 1-1-1zm15.657.657a1 1 0 0 1 1.414 0l.707.707a1 1 0 0 1-1.414 1.414l-.707-.707a1 1 0 0 1 0-1.414zM6 21a1 1 0 0 1 1-1h7a1 1 0 1 1 0 2H7a1 1 0 0 1-1-1z"
  />
</svg>
